img/elem/ElemPlate24.svg

<svg height="24" width="24" xmlns="http://www.w3.org/2000/svg" xmlns:xlink="http://www.w3.org/1999/xlink">
  <linearGradient id="a" gradientUnits="userSpaceOnUse" spreadMethod="pad" x1="12" x2="12" y1=".479999" y2="23.519999">
    <stop offset="0" stop-color="#dbf6ff"/>
    <stop offset="1" stop-color="#7ddcfd"/>
  </linearGradient>
  <g stroke-linecap="round">
    <path d="m.48.479999h23.040001v23.040001h-23.040001z" fill="url(#a)" stroke="#00b4ff" stroke-width=".96"/>
    <g fill="none">
      <path d="m9 13 5-5m-3 6 5-5" stroke="#00b4ff"/>
      <path d="m3 12h18" stroke="#000" stroke-width="1.999969"/>
      <path d="m7 9-5 3 5 3" stroke="#000"/>
      <path d="m17 9 5 3-5 3" stroke="#000"/>
      <path d="m3 7 5-5m-3 6 5-5" stroke="#00b4ff"/>
      <path d="m15 6 5-5m-3 6 5-5" stroke="#00b4ff"/>
      <path d="m15 21 5-5m-3 6 5-5" stroke="#00b4ff"/>
      <path d="m3 21 5-5m-3 6 5-5" stroke="#00b4ff"/>
    </g>
  </g>
</svg>

<?xml version="1.0" encoding="UTF-8" standalone="no"?>
<!-- Created with Inkscape (http://www.inkscape.org/) -->
<svg
   xmlns:dc="http://purl.org/dc/elements/1.1/"
   xmlns:cc="http://creativecommons.org/ns#"
   xmlns:rdf="http://www.w3.org/1999/02/22-rdf-syntax-ns#"
   xmlns:svg="http://www.w3.org/2000/svg"
   xmlns="http://www.w3.org/2000/svg"
   xmlns:xlink="http://www.w3.org/1999/xlink"
   xmlns:sodipodi="http://sodipodi.sourceforge.net/DTD/sodipodi-0.dtd"
   xmlns:inkscape="http://www.inkscape.org/namespaces/inkscape"
   width="24"
   height="24"
   id="svg2"
   sodipodi:version="0.32"
   inkscape:version="0.46"
   version="1.0"
   sodipodi:docname="ElemPlate24.svg"
   inkscape:output_extension="org.inkscape.output.svg.inkscape"
   inkscape:export-filename="D:\user documents\_kolyan\rezonator2\elems\ElemMediaRange24.png"
   inkscape:export-xdpi="90"
   inkscape:export-ydpi="90">
  <defs
     id="defs4">
    <linearGradient
       id="linearGradient3261">
      <stop
         style="stop-color:#dbf6ff;stop-opacity:1;"
         offset="0"
         id="stop3263" />
      <stop
         style="stop-color:#7ddcfd;stop-opacity:1;"
         offset="1"
         id="stop3265" />
    </linearGradient>
    <inkscape:perspective
       sodipodi:type="inkscape:persp3d"
       inkscape:vp_x="0 : 526.18109 : 1"
       inkscape:vp_y="0 : 1000 : 0"
       inkscape:vp_z="744.09448 : 526.18109 : 1"
       inkscape:persp3d-origin="372.04724 : 350.78739 : 1"
       id="perspective10" />
    <linearGradient
       inkscape:collect="always"
       xlink:href="#linearGradient3261"
       id="linearGradient3267"
       x1="12"
       y1="0"
       x2="12"
       y2="24"
       gradientUnits="userSpaceOnUse"
       spreadMethod="pad"
       gradientTransform="matrix(0.96,0,0,0.96,0.48,0.4799991)" />
  </defs>
  <sodipodi:namedview
     id="base"
     pagecolor="#ffffff"
     bordercolor="#666666"
     borderopacity="1.0"
     gridtolerance="10000"
     guidetolerance="10"
     objecttolerance="10"
     inkscape:pageopacity="0.0"
     inkscape:pageshadow="2"
     inkscape:zoom="22.627417"
     inkscape:cx="13.405093"
     inkscape:cy="11.29433"
     inkscape:document-units="px"
     inkscape:current-layer="layer1"
     showgrid="true"
     inkscape:snap-global="true"
     inkscape:window-width="1024"
     inkscape:window-height="719"
     inkscape:window-x="0"
     inkscape:window-y="22">
    <inkscape:grid
       type="xygrid"
       id="grid2383"
       visible="true"
       enabled="true" />
  </sodipodi:namedview>
  <metadata
     id="metadata7">
    <rdf:RDF>
      <cc:Work
         rdf:about="">
        <dc:format>image/svg+xml</dc:format>
        <dc:type
           rdf:resource="http://purl.org/dc/dcmitype/StillImage" />
      </cc:Work>
    </rdf:RDF>
  </metadata>
  <g
     inkscape:label="Layer 1"
     inkscape:groupmode="layer"
     id="layer1">
    <rect
       style="opacity:1;fill:url(#linearGradient3267);fill-opacity:1;fill-rule:nonzero;stroke:#00b4ff;stroke-width:0.95999998;stroke-linecap:round;stroke-linejoin:miter;stroke-miterlimit:4;stroke-dasharray:none;stroke-opacity:1"
       id="rect3213"
       width="23.040001"
       height="23.040001"
       x="0.47999999"
       y="0.4799991" />
    <path
       id="path3259"
       style="fill:none;fill-rule:evenodd;stroke:#00b4ff;stroke-width:1px;stroke-linecap:round;stroke-linejoin:miter;stroke-opacity:1"
       d="M 9,13 L 14,8 L 14,8 M 11,14 L 16,9" />
    <path
       style="fill:none;fill-rule:evenodd;stroke:#000000;stroke-width:1.99996889;stroke-linecap:round;stroke-linejoin:miter;stroke-miterlimit:4;stroke-dasharray:none;stroke-opacity:1"
       d="M 3,12 L 21,12"
       id="path2385"
       sodipodi:nodetypes="cc" />
    <path
       style="fill:none;fill-rule:evenodd;stroke:#000000;stroke-width:1px;stroke-linecap:round;stroke-linejoin:miter;stroke-opacity:1"
       d="M 7,9 L 2,12 L 7,15"
       id="path3157"
       sodipodi:nodetypes="ccc" />
    <path
       style="fill:none;fill-rule:evenodd;stroke:#000000;stroke-width:1px;stroke-linecap:round;stroke-linejoin:miter;stroke-opacity:1"
       d="M 17,9 L 22,12 L 17,15"
       id="path3159"
       sodipodi:nodetypes="ccc" />
    <path
       id="path3248"
       style="fill:none;fill-rule:evenodd;stroke:#00b4ff;stroke-width:1px;stroke-linecap:round;stroke-linejoin:miter;stroke-opacity:1"
       d="M 3,7 L 8,2 L 8,2 M 5,8 L 10,3" />
    <path
       d="M 15,6 L 20,1 L 20,1 M 17,7 L 22,2"
       style="fill:none;fill-rule:evenodd;stroke:#00b4ff;stroke-width:1px;stroke-linecap:round;stroke-linejoin:miter;stroke-opacity:1"
       id="path3253" />
    <path
       id="path3255"
       style="fill:none;fill-rule:evenodd;stroke:#00b4ff;stroke-width:1px;stroke-linecap:round;stroke-linejoin:miter;stroke-opacity:1"
       d="M 15,21 L 20,16 L 20,16 M 17,22 L 22,17" />
    <path
       d="M 3,21 L 8,16 L 8,16 M 5,22 L 10,17"
       style="fill:none;fill-rule:evenodd;stroke:#00b4ff;stroke-width:1px;stroke-linecap:round;stroke-linejoin:miter;stroke-opacity:1"
       id="path3257" />
  </g>
</svg>
